src/icons/colorUmbrella.svg

<svg class="icon" fill="none" viewBox="0 0 48 48" xmlns="http://www.w3.org/2000/svg">
    <rect x="23" y="4" width="2" height="33" rx="1" fill="#19194B"/>
    <path d="m4 26c0-11.046 8.9543-20 20-20s20 8.9543 20 20c0 0-2.2535-2-4-2s-4 2-4 2-3.5301-2-6-2-6 2-6 2-3.8441-2-6.5-2-6.5 2-6.5 2-1.9258-2-3.5-2-3.5 2-3.5 2z" fill="#00A0DF"/>
    <mask id="a" x="4" y="6" width="40" height="20" mask-type="alpha" maskUnits="userSpaceOnUse">
        <path d="m4 26c0-11.046 8.9543-20 20-20s20 8.9543 20 20c0 0-2.2535-2-4-2s-4 2-4 2-3.5301-2-6-2-6 2-6 2-3.8441-2-6.5-2-6.5 2-6.5 2-1.9258-2-3.5-2-3.5 2-3.5 2z" fill="#00A0DF"/>
    </mask>
    <g mask="url(#a)">
        <path d="m11 26s1.5-20 13-20 12 20 12 20h-25z" fill="#33B3E5"/>
    </g>
    <path d="m24 35c0.5523 0 1 0.4477 1 1v5c0 1.6569-1.3431 3-3 3s-3-1.3431-3-3v-0.5c0-0.5523 0.4477-1 1-1s1 0.4477 1 1v0.5c0 0.5523 0.4477 1 1 1s1-0.4477 1-1v-5c0-0.5523 0.4477-1 1-1z" clip-rule="evenodd" fill="#19194B" fill-rule="evenodd"/>
</svg>

<svg class="icon" viewBox="0 0 48 48" fill="none" xmlns="http://www.w3.org/2000/svg">
    <rect width="48" height="48" fill="white"/>
    <rect x="23" y="4" width="2" height="33" rx="1" fill="#19194B"/>
    <path d="M4 26C4 14.9543 12.9543 6 24 6C35.0457 6 44 14.9543 44 26C44 26 41.7465 24 40 24C38.2535 24 36 26 36 26C36 26 32.4699 24 30 24C27.5301 24 24 26 24 26C24 26 20.1559 24 17.5 24C14.8441 24 11 26 11 26C11 26 9.07425 24 7.5 24C5.92575 24 4 26 4 26Z" fill="#00A0DF"/>
    <mask id="mask0" mask-type="alpha" maskUnits="userSpaceOnUse" x="4" y="6" width="40" height="20">
        <path d="M4 26C4 14.9543 12.9543 6 24 6C35.0457 6 44 14.9543 44 26C44 26 41.7465 24 40 24C38.2535 24 36 26 36 26C36 26 32.4699 24 30 24C27.5301 24 24 26 24 26C24 26 20.1559 24 17.5 24C14.8441 24 11 26 11 26C11 26 9.07425 24 7.5 24C5.92575 24 4 26 4 26Z" fill="#00A0DF"/>
    </mask>
    <g mask="url(#mask0)">
        <path d="M11 26C11 26 12.5 6 24 6C35.5 6 36 26 36 26H11Z" fill="#33B3E5"/>
    </g>
    <path fill-rule="evenodd" clip-rule="evenodd" d="M24 35C24.5523 35 25 35.4477 25 36V41C25 42.6569 23.6569 44 22 44C20.3431 44 19 42.6569 19 41V40.5C19 39.9477 19.4477 39.5 20 39.5C20.5523 39.5 21 39.9477 21 40.5V41C21 41.5523 21.4477 42 22 42C22.5523 42 23 41.5523 23 41V36C23 35.4477 23.4477 35 24 35Z" fill="#19194B"/>
</svg>
